X: 8
T: The Connaughtman's Rambles
R: jig
M: 6/8
L: 1/8
K: Dmaj
FAA dAA | BAB dAG |FAA dAA | def gfe |
FAA dAA | BAB dAG |FAA def | gfe f2e :||
fbb faa | ded BAG | fbb faa | dBB B3|
fbb faa | ded BAG | def gfe | dBB B3:||


Tune 19	Setting 12390

